Numix-GalliumOS/24/status/skype-status-connecting-0.svg

<?xml version="1.0" encoding="UTF-8" standalone="no"?>
<!-- Created with Inkscape (http://www.inkscape.org/) -->

<svg
   xmlns:dc="http://purl.org/dc/elements/1.1/"
   xmlns:cc="http://creativecommons.org/ns#"
   xmlns:rdf="http://www.w3.org/1999/02/22-rdf-syntax-ns#"
   xmlns:svg="http://www.w3.org/2000/svg"
   xmlns="http://www.w3.org/2000/svg"
   xmlns:sodipodi="http://sodipodi.sourceforge.net/DTD/sodipodi-0.dtd"
   xmlns:inkscape="http://www.inkscape.org/namespaces/inkscape"
   version="1.1"
   width="24"
   height="24"
   id="svg2"
   xml:space="preserve"
   inkscape:version="0.91 r"
   sodipodi:docname="skype-status-connecting-0.svg"><metadata
     id="metadata37"><rdf:RDF><cc:Work
         rdf:about=""><dc:format>image/svg+xml</dc:format><dc:type
           rdf:resource="http://purl.org/dc/dcmitype/StillImage" /><dc:title></dc:title></cc:Work></rdf:RDF></metadata><sodipodi:namedview
     pagecolor="#ffffff"
     bordercolor="#666666"
     borderopacity="1"
     objecttolerance="10"
     gridtolerance="10"
     guidetolerance="10"
     inkscape:pageopacity="0"
     inkscape:pageshadow="2"
     inkscape:window-width="1920"
     inkscape:window-height="1056"
     id="namedview35"
     showgrid="true"
     inkscape:zoom="22.627417"
     inkscape:cx="7.9156859"
     inkscape:cy="5.9266977"
     inkscape:window-x="0"
     inkscape:window-y="24"
     inkscape:window-maximized="1"
     inkscape:current-layer="svg2"><inkscape:grid
       type="xygrid"
       id="grid4146" /></sodipodi:namedview><defs
     id="defs6"><clipPath
       id="clipPath-408241621"><g
         id="g3616"
         transform="translate(0,-1004.3622)"><path
           id="path3618"
           transform="matrix(15.333333,0,0,11.5,414.99999,878.8622)"
           d="m -24,13 c 0,1.105 -0.672,2 -1.5,2 -0.828,0 -1.5,-0.895 -1.5,-2 0,-1.105 0.672,-2 1.5,-2 0.828,0 1.5,0.895 1.5,2 z"
           inkscape:connector-curvature="0"
           style="fill:#1890d0" /></g></clipPath><clipPath
       id="clipPath-401820784"><g
         id="g3611"
         transform="translate(0,-1004.3622)"><path
           id="path3613"
           transform="matrix(15.333333,0,0,11.5,414.99999,878.8622)"
           d="m -24,13 c 0,1.105 -0.672,2 -1.5,2 -0.828,0 -1.5,-0.895 -1.5,-2 0,-1.105 0.672,-2 1.5,-2 0.828,0 1.5,0.895 1.5,2 z"
           inkscape:connector-curvature="0"
           style="fill:#1890d0" /></g></clipPath><linearGradient
       gradientTransform="matrix(0,-1,1,0,-1.5e-6,47.999998)"
       gradientUnits="userSpaceOnUse"
       x2="47"
       x1="1"
       id="linearGradient3764"><stop
         id="stop3606"
         stop-opacity="1"
         stop-color="#003c80" /><stop
         id="stop3608"
         stop-opacity="1"
         stop-color="#004794"
         offset="1" /></linearGradient></defs><path
     style="opacity:1;fill:#ececec;fill-opacity:1;fill-rule:nonzero;stroke:none"
     d="M 8.4257812,3.875 C 5.9816293,3.875 4,5.8592532 4,8.3066406 4,9.124774 4.221404,9.891039 4.6074219,10.548828 c -0.101215,0.496459 -0.1542969,1.010658 -0.1542969,1.53711 0,4.220575 3.4181524,7.640625 7.632813,7.640624 0.477361,0 0.943495,-0.04299 1.396484,-0.126953 C 14.105441,19.934943 14.81738,20.125 15.574219,20.125 18.018412,20.125 20,18.140992 20,15.693359 c 0,-0.707135 -0.166714,-1.375649 -0.460938,-1.96875 0.115387,-0.528373 0.177735,-1.075686 0.177735,-1.638671 0,-4.2204598 -3.416204,-7.6425786 -7.630859,-7.6425786 -0.444965,0 -0.882529,0.038109 -1.306641,0.1113281 C 10.097253,4.1244749 9.2913725,3.875 8.4257812,3.875 Z m 3.7187498,4.1230469 c 1.308665,0.048466 2.499789,0.7371834 3.203125,1.8183591 L 16.736328,9.353516 15.164062,12.5 12.019531,10.925781 13.296875,10.5 c -0.338262,-0.294052 -0.761099,-0.484713 -1.226563,-0.501953 -0.742441,-0.0275 -1.435164,0.354632 -1.80664,0.998047 l -1.732422,-1 C 9.271346,8.7142096 10.665353,7.9432659 12.144531,7.9980469 Z m -3.3124998,3.4980471 3.1445308,1.574218 -1.277343,0.425782 c 0.338262,0.294052 0.7611,0.484713 1.226562,0.501953 0.742443,0.0275 1.435165,-0.354632 1.806641,-0.998047 l 1.732422,1 c -0.740096,1.281884 -2.134103,2.052828 -3.613282,1.998047 -1.308665,-0.04847 -2.499788,-0.737184 -3.2031245,-1.818359 l -1.3886719,0.46289 1.5722656,-3.146484 z"
     id="path22"
     inkscape:connector-curvature="0" /><g
     id="g48"
     transform="matrix(1.25,0,0,-1.25,-129.20625,300.11625)" /><g
     id="g3650"
     clip-path="url(#clipPath-408241621)"
     transform="matrix(0.42297932,0,0,0.42297932,-11.083711,5.1945516)"><!-- color: #004794 --><g
       id="g3652" /></g></svg>

<svg xmlns="http://www.w3.org/2000/svg" viewBox="0 0 24 24">
 <path d="m 8.426 3.875 c -2.444 0 -4.426 1.984 -4.426 4.432 0 0.818 0.221 1.584 0.607 2.242 c -0.101 0.496 -0.154 1.01 -0.154 1.537 0 4.221 3.418 7.641 7.633 7.641 0.477 0 0.943 -0.043 1.396 -0.127 c 0.623 0.335 1.335 0.525 2.092 0.525 2.444 0 4.426 -1.984 4.426 -4.432 c 0 -0.707 -0.167 -1.376 -0.461 -1.969 0.115 -0.528 0.178 -1.076 0.178 -1.639 0 -4.22 -3.416 -7.643 -7.631 -7.643 -0.445 0 -0.883 0.038 -1.307 0.111 c -0.682 -0.43 -1.488 -0.68 -2.354 -0.68 m 3.719 4.123 c 1.309 0.048 2.5 0.737 3.203 1.818 l 1.389 -0.463 -1.572 3.146 -3.145 -1.574 1.277 -0.426 c -0.338 -0.294 -0.761 -0.485 -1.227 -0.502 -0.742 -0.027 -1.435 0.355 -1.807 0.998 l -1.732 -1 c 0.74 -1.282 2.134 -2.053 3.613 -1.998 m -3.312 3.498 3.145 1.574 -1.277 0.426 c 0.338 0.294 0.761 0.485 1.227 0.502 0.742 0.027 1.435 -0.355 1.807 -0.998 l 1.732 1 c -0.74 1.282 -2.134 2.053 -3.613 1.998 -1.309 -0.048 -2.5 -0.737 -3.203 -1.818 l -1.389 0.463 1.572 -3.146 z" style="fill:#ececec;opacity:1;fill-opacity:1;stroke:none;fill-rule:nonzero"/>
 <g transform="matrix(0.42297932,0,0,0.42297932,-11.083711,5.1945516)">
  <!-- color: #004794 -->
 </g>
</svg>
